src/modules/75-ce/components/COHelpSidebar/images/rdp.svg

<svg fill="none" height="32" viewBox="0 0 57 32" width="57" xmlns="http://www.w3.org/2000/svg"><path d="m.633985.827141c-.039801.000056-.077956.015832-.106095.043866-.028138.028034-.043962.066037-.044003.105675v30.677118c.000043.0396.015871.0776.04401.1056.02814.0281.066293.0438.106088.0439h55.732015c.0398-.0001.078-.0158.1061-.0439.0282-.028.044-.066.044-.1056v-30.677118c0-.039641-.0158-.077649-.044-.105686-.0281-.028036-.0663-.043809-.1061-.043855z" fill="#0278d5"/></svg>

<svg width="57" height="32" viewBox="0 0 57 32" fill="none" xmlns="http://www.w3.org/2000/svg">
<path d="M0.633985 0.827141C0.594184 0.827197 0.556029 0.842973 0.52789 0.871007C0.499752 0.899041 0.483928 0.937044 0.483887 0.976682V31.6538C0.48393 31.6934 0.499758 31.7314 0.527897 31.7594C0.556037 31.7875 0.59419 31.8032 0.633985 31.8033H56.366C56.4058 31.8032 56.444 31.7875 56.4721 31.7594C56.5003 31.7314 56.5161 31.6934 56.5161 31.6538V0.976682C56.5161 0.937041 56.5003 0.899033 56.4721 0.870996C56.444 0.84296 56.4058 0.827187 56.366 0.827141H0.633985Z" fill="#0278D5"/>
</svg>
